packages/icons/src/SVG/favorite.svg

<svg width="12" height="12" viewBox="0 0 12 12" >
<path d="M5.99994 0L7.78837 4.04531L11.9999 4.58356L8.89359 7.62209L9.70822 12L5.99997 9.5L2.29172 12L3.10634 7.62209L0 4.58356L4.21156 4.04531L5.99994 0ZM7.10191 4.96572L5.99994 2.473L4.89797 4.96572L2.17594 5.313L4.18703 7.28038L3.71094 9.83597L5.99994 8.29394L8.28794 9.83597L7.81284 7.28038L9.82294 5.31297L7.10191 4.96572Z" />
</svg>

<!-- Generated by IcoMoon.io -->
<svg version="1.1" xmlns="http://www.w3.org/2000/svg" width="12" height="12" viewBox="0 0 12 12">
<title>favorite</title>
<path d="M6 0l1.788 4.045 4.212 0.538-3.106 3.039 0.815 4.378-3.708-2.5-3.708 2.5 0.815-4.378-3.106-3.039 4.212-0.538 1.788-4.045zM7.102 4.966l-1.102-2.493-1.102 2.493-2.722 0.347 2.011 1.967-0.476 2.556 2.289-1.542 2.288 1.542-0.475-2.556 2.010-1.967-2.721-0.347z"></path>
</svg>
